svg/300/outlined/my_location-fill.svg

<svg xmlns="http://www.w3.org/2000/svg" width="48" height="48" viewBox="0 -960 960 960"><path d="M457.308-72.002v-65.769q-133.923-12.846-220.307-99.23-86.384-86.384-99.23-220.307H72.002v-45.384h65.769q12.846-133.923 99.23-220.307 86.384-86.384 220.307-99.615v-65.384h45.384v65.384q133.923 13.231 220.307 99.615 86.384 86.384 99.615 220.307h65.384v45.384h-65.384q-13.231 133.923-99.615 220.307-86.384 86.384-220.307 99.23v65.769h-45.384ZM480-182.54q122.692 0 210.077-87.384Q777.461-357.308 777.461-480t-87.384-210.077Q602.692-777.461 480-777.461t-210.077 87.384Q182.539-602.692 182.539-480t87.384 210.077Q357.308-182.539 480-182.539Zm0-164.77q-55.519 0-94.105-38.586-38.586-38.586-38.586-94.105 0-55.519 38.586-94.105 38.586-38.586 94.105-38.586 55.519 0 94.105 38.586 38.586 38.586 38.586 94.105 0 55.519-38.586 94.105Q535.519-347.31 480-347.31Z"/></svg>

<svg xmlns="http://www.w3.org/2000/svg" width="48" height="48" viewBox="0 -960 960 960"><path d="M457.31-72v-65.77Q323.39-150.62 237-237q-86.38-86.39-99.23-220.31H72v-45.38h65.77Q150.62-636.61 237-723q86.39-86.38 220.31-99.61V-888h45.38v65.39Q636.61-809.38 723-723q86.38 86.39 99.61 220.31H888v45.38h-65.39Q809.38-323.39 723-237q-86.39 86.38-220.31 99.23V-72h-45.38ZM480-182.54q122.69 0 210.08-87.38 87.38-87.39 87.38-210.08 0-122.69-87.38-210.08-87.39-87.38-210.08-87.38-122.69 0-210.08 87.38-87.38 87.39-87.38 210.08 0 122.69 87.38 210.08 87.39 87.38 210.08 87.38Zm0-164.77q-55.52 0-94.1-38.59-38.59-38.58-38.59-94.1 0-55.52 38.59-94.1 38.58-38.59 94.1-38.59 55.52 0 94.1 38.59 38.59 38.58 38.59 94.1 0 55.52-38.59 94.1-38.58 38.59-94.1 38.59Z"/></svg>
